docs/images/icons/guarantee.svg

<svg width="67" height="67" viewBox="0 0 67 67" fill="none" xmlns="http://www.w3.org/2000/svg">
<path fill-rule="evenodd" clip-rule="evenodd" d="M40.1897 4.35594V11.0355V11.0326C40.1897 11.4755 40.5561 11.8332 41.0096 11.8332H47.8417L40.1897 4.35594ZM30.6334 23.526C29.3484 24.8943 27.8395 26.0411 26.1678 26.9268C25.8655 27.0914 25.4962 27.0914 25.1939 26.9268C21.7837 25.1213 19.0624 22.2912 17.4372 18.8537C16.7772 17.2868 16.4167 15.6147 16.3731 13.92C16.2771 12.2281 16.3731 10.4681 16.4167 8.83295C16.4196 8.32481 16.8092 7.89897 17.3267 7.84222C20.0625 7.57537 22.7488 6.93382 25.3045 5.94025C25.5429 5.84374 25.8103 5.84374 26.0487 5.94025C28.5926 6.92248 31.2615 7.55836 33.9826 7.82805C34.4826 7.88198 34.8664 8.28224 34.8897 8.77336C34.9566 10.4369 35.0321 12.2111 34.9333 13.9171L34.9362 13.92C34.8926 15.6118 34.535 17.2839 33.8779 18.8537C33.0464 20.557 31.965 22.1296 30.6625 23.5263L30.6334 23.526ZM25.6474 24.9283C28.4326 23.2961 30.6509 20.8803 32.0028 17.9961C33.0377 15.816 32.9476 12.1824 32.8517 9.70428C31.6655 9.54531 30.488 9.32957 29.3222 9.05705C28.0605 8.75615 26.8161 8.3786 25.6009 7.92439C24.3886 8.37575 23.1442 8.75612 21.8796 9.05705C20.7196 9.32957 19.5451 9.54532 18.3618 9.70428C18.2571 12.2904 18.1612 15.7082 19.202 18.0048V18.002C20.58 20.8975 22.8273 23.3131 25.6474 24.9283ZM27.5372 12.7275L24.8043 15.5691L23.8159 14.5301C23.4321 14.127 22.7867 14.1071 22.3768 14.4819C21.9639 14.8566 21.9436 15.4868 22.3273 15.887L24.0397 17.6612C24.2316 17.8656 24.502 17.9792 24.784 17.9792C25.066 17.9792 25.3364 17.8656 25.5283 17.6612L28.9967 14.0277C29.3804 13.6274 29.3601 12.9972 28.9473 12.6225C28.5373 12.2449 27.8919 12.2676 27.5082 12.6679L27.5372 12.7275ZM10.1051 28.6557C10.2911 28.4626 10.5441 28.3491 10.8144 28.3406C11.0819 28.332 11.3465 28.4257 11.5442 28.6046C11.9541 28.9793 11.9773 29.6066 11.5936 30.0069L8.46827 33.2487C8.27929 33.4531 8.00892 33.5723 7.72401 33.5723C7.442 33.5723 7.17162 33.4531 6.97974 33.2487L5.4156 31.6278H5.41851C5.03475 31.2275 5.058 30.6001 5.47084 30.2254C5.88076 29.8536 6.5233 29.8763 6.90704 30.2765L7.72692 31.1338L10.1167 28.6556L10.1051 28.6557ZM15.1056 31.9486H15.1085C14.8236 31.9713 14.5416 31.8776 14.3323 31.6902C14.12 31.5 14.0008 31.236 14.0008 30.9578C14.0008 30.6768 14.12 30.4128 14.3323 30.2226C14.5416 30.0353 14.8236 29.9416 15.1085 29.9643H38.977C39.5033 30.0097 39.9103 30.4384 39.9103 30.9579C39.9103 31.4745 39.5032 31.9032 38.977 31.9486L15.1056 31.9486ZM15.1056 39.9795H15.1085C14.5503 39.9795 14.0968 39.5367 14.0968 38.9916C14.0968 38.4437 14.5503 38.0009 15.1085 38.0009H34.1922C34.7504 38.0009 35.2039 38.4437 35.2039 38.9916C35.2039 39.5366 34.7504 39.9795 34.1922 39.9795H15.1056ZM15.1056 48.0163H15.1085C14.5503 48.0163 14.0968 47.5734 14.0968 47.0284C14.0968 46.4833 14.5503 46.0405 15.1085 46.0405H34.0872C34.6454 46.0405 35.099 46.4833 35.099 47.0284C35.099 47.5734 34.6454 48.0163 34.0872 48.0163H15.1056ZM15.1056 56.053H15.1085C14.8236 56.0786 14.5416 55.9849 14.3323 55.7947C14.12 55.6073 14.0008 55.3405 14.0008 55.0623C14.0008 54.7841 14.12 54.5173 14.3323 54.3299C14.5416 54.1397 14.8236 54.046 15.1085 54.0716H34.0061C34.5323 54.1142 34.9364 54.5457 34.9364 55.0623C34.9364 55.579 34.5323 56.0105 34.0061 56.0531L15.1056 56.053ZM10.1051 36.6955C10.2911 36.5024 10.5441 36.3889 10.8144 36.3775C11.0819 36.369 11.3465 36.4655 11.5442 36.6444C11.9541 37.0162 11.9773 37.6436 11.5936 38.0467L8.46827 41.2885C8.27639 41.4901 8.00892 41.6065 7.72401 41.6065C7.442 41.6065 7.17162 41.4901 6.97974 41.2885L5.4156 39.6676H5.41851C5.03475 39.2645 5.058 38.6371 5.47084 38.2652C5.88076 37.8905 6.5233 37.9132 6.90704 38.3163L7.72692 39.1736L10.1167 36.6954L10.1051 36.6955ZM10.1051 44.7322C10.2911 44.5392 10.5441 44.4256 10.8144 44.4171C11.0819 44.4058 11.3465 44.5023 11.5442 44.6811C11.9541 45.0558 11.9773 45.6832 11.5936 46.0835L8.46827 49.3253C8.27639 49.5268 8.00892 49.6432 7.72401 49.6432C7.442 49.6432 7.17162 49.5268 6.97974 49.3253L5.4156 47.7043H5.41851C5.03475 47.3041 5.058 46.6739 5.47084 46.302C5.88076 45.9273 6.5233 45.95 6.90704 46.3531L7.72692 47.2047L10.1167 44.7351L10.1051 44.7322ZM10.1051 52.769C10.2911 52.576 10.5441 52.4624 10.8144 52.4539C11.0819 52.4454 11.3465 52.539 11.5442 52.7179C11.9541 53.0926 11.9773 53.72 11.5936 54.1231L8.46827 57.3649V57.362C8.27639 57.5664 8.00892 57.68 7.72401 57.68C7.442 57.68 7.17162 57.5664 6.97974 57.362L5.4156 55.7411H5.41851C5.03475 55.3408 5.058 54.7134 5.47084 54.3387C5.88076 53.9669 6.5233 53.9896 6.90704 54.3898L7.72692 55.2415L10.1167 52.7718L10.1051 52.769ZM52.4789 31.325L50.7229 29.9738H50.72C50.4555 29.7751 50.0862 29.7751 49.8217 29.9738L48.0628 31.325C47.4668 31.7849 46.7022 31.9808 45.9492 31.8701L43.9112 31.5635C43.571 31.5181 43.2425 31.7026 43.1146 32.0148L42.4227 33.8543C42.1523 34.5895 41.5563 35.1686 40.8004 35.4298L38.9252 36.114C38.6054 36.2389 38.4136 36.5596 38.463 36.8918L38.777 38.9044C38.8933 39.6396 38.6897 40.3891 38.21 40.9681L36.832 42.6828C36.6285 42.9439 36.6285 43.3073 36.832 43.5685L38.1809 45.2774C38.6577 45.8594 38.8642 46.6116 38.7449 47.3497L38.431 49.3567L38.4339 49.3539C38.3844 49.686 38.5763 50.0068 38.8961 50.1317L40.7713 50.8215C41.5388 51.0741 42.1465 51.656 42.4227 52.3998L43.1233 54.2393V54.2365C43.2367 54.5601 43.5623 54.7645 43.9112 54.7247L45.9724 54.4181C46.7254 54.3046 47.493 54.5005 48.086 54.9632L49.842 56.3144V56.3173C50.1095 56.5131 50.4787 56.5131 50.7432 56.3173L52.4993 54.966V54.9632C53.0982 54.5005 53.8656 54.3017 54.6216 54.4181L56.677 54.7247H56.6741C57.0143 54.773 57.3457 54.5856 57.4707 54.2734L58.215 52.4339V52.4367C58.4824 51.6987 59.0755 51.1196 59.8314 50.8584L61.7066 50.1686C62.038 50.0579 62.2357 49.7257 62.1689 49.3908L61.7735 47.3497C61.6572 46.6088 61.8723 45.8537 62.3607 45.2774L63.7446 43.5685C63.951 43.3073 63.951 42.9439 63.7446 42.6827L62.3607 40.9681C61.8752 40.3919 61.6601 39.6424 61.7735 38.9044L62.0787 36.8918C62.1282 36.5596 61.9363 36.2388 61.6165 36.114L59.7413 35.4298C58.9883 35.1686 58.3923 34.5896 58.1278 33.8543L57.3835 32.0148C57.2556 31.7026 56.927 31.5181 56.5869 31.5635L54.5315 31.8701C53.7785 31.9836 53.008 31.7849 52.412 31.325L52.4789 31.325ZM55.2699 38.2487C57.2875 40.2216 57.8923 43.1881 56.7992 45.7658C55.7061 48.3436 53.1302 50.024 50.2752 50.024C47.4174 50.024 44.8415 48.3434 43.7484 45.7658C42.6553 43.1882 43.26 40.2218 45.2806 38.2487C48.0396 35.5604 52.5079 35.5604 55.2699 38.2487ZM50.2752 34.2461C53.9559 34.2461 57.273 36.412 58.6802 39.7334C60.0873 43.0575 59.3024 46.8784 56.6945 49.4161C54.0867 51.954 50.1706 52.7062 46.775 51.3209C43.3764 49.9385 41.1668 46.6909 41.1785 43.0974C41.1959 38.2034 45.2629 34.2461 50.2752 34.2461ZM53.7204 56.4989C53.8745 56.3598 54.0867 56.3001 54.2931 56.337L56.3543 56.6436C57.6394 56.8281 58.8807 56.1099 59.3314 54.9205L60.032 53.0895C60.064 53.0157 60.1018 52.9448 60.1512 52.8795L64.0063 59.3178L60.0233 58.5485C59.5087 58.4434 58.9999 58.7443 58.8546 59.2383L57.5318 62.9513L53.7204 56.4989ZM40.5767 62.1082H3.44465C2.66838 62.1082 2.03464 61.4951 2.03174 60.7343V4.33457C2.03464 3.57378 2.66552 2.95781 3.44465 2.95498H38.134V11.0339C38.1398 12.5697 39.4132 13.813 40.986 13.8187H49.254V28.0267C49.0069 28.1232 48.7714 28.2566 48.5621 28.4184L46.8119 29.7612C46.6578 29.8946 46.4485 29.9485 46.2479 29.9088L44.1866 29.6107C42.9045 29.4234 41.6632 30.1387 41.2096 31.3253L40.5089 33.1648V33.162C40.4334 33.3522 40.2793 33.5026 40.0845 33.5764L38.2006 34.3031C36.9854 34.7431 36.2469 35.9581 36.4388 37.21L36.7528 39.217H36.7499C36.7935 39.4128 36.7382 39.6172 36.6016 39.7705L35.2032 41.4624C34.4066 42.4361 34.4066 43.8186 35.2032 44.7894L36.5871 46.504V46.5068C36.7208 46.6544 36.776 46.856 36.7353 47.0519L36.4214 49.0645H36.4243C36.2324 50.3193 36.9679 51.5313 38.1861 51.9714L38.5001 52.0878L33.7002 60.2263C33.5083 60.5612 33.5315 60.9756 33.7612 61.2851C33.9909 61.5973 34.3834 61.7506 34.7701 61.6797L40.07 60.6549L40.5767 62.1082ZM44.6556 64.0925L43.6817 65.7702C43.4956 66.1279 43.106 66.3436 42.6961 66.3096C42.2862 66.2784 41.9373 66.0087 41.8123 65.6255L41.2686 64.0642H3.44519C1.55833 64.0585 0.0232903 62.5767 6.92532e-05 60.7344V4.33463C-0.00574493 3.43757 0.354755 2.57743 1.00021 1.94156C1.64853 1.30568 2.52945 0.94799 3.44526 0.94799H39.1699C39.449 0.939474 39.7194 1.04451 39.9142 1.23754L51.0342 12.0954C51.2319 12.2856 51.3395 12.5496 51.3307 12.8221V28.0265C51.5808 28.123 51.8133 28.2536 52.0227 28.4182L53.7729 29.7638V29.761C53.927 29.8944 54.1363 29.9483 54.3398 29.9086L56.401 29.6105C57.6832 29.4232 58.9245 30.1385 59.3781 31.3251L60.0787 33.1646L60.0758 33.1618C60.1485 33.3576 60.3084 33.5109 60.509 33.5762L62.3842 34.3029C63.6023 34.7429 64.3379 35.9579 64.1489 37.2098L63.8349 39.2168C63.7971 39.4126 63.8524 39.617 63.9832 39.7703L65.3671 41.4849C66.1637 42.4586 66.1637 43.8383 65.3671 44.8119L63.9832 46.5265C63.8524 46.677 63.7971 46.8785 63.8349 47.0716L64.1489 49.0842C64.3379 50.339 63.6023 51.551 62.3842 51.9911L62.0702 52.1075L66.8701 60.2322H66.873C67.062 60.5671 67.0387 60.9787 66.812 61.2881C66.5823 61.6004 66.1927 61.7537 65.8089 61.6856L60.5089 60.6608L58.7384 65.6257C58.6047 65.9947 58.2616 66.253 57.8604 66.2871C57.4621 66.3212 57.0783 66.1196 56.8836 65.779L52.0982 57.7342C51.8511 57.9386 51.572 58.1033 51.2725 58.2282V60.7348C51.2667 62.5885 49.7317 64.0873 47.8332 64.093L44.6556 64.0925ZM48.3769 57.7338L45.7952 62.0941H47.7983H47.7954C48.5746 62.0941 49.2025 61.4781 49.2025 60.7201V58.2277C48.9031 58.1028 48.6241 57.9381 48.3769 57.7338ZM40.3761 52.8795C40.4284 52.942 40.4691 53.0129 40.4953 53.0896L41.196 54.9205C41.6466 56.11 42.888 56.8282 44.173 56.6437L46.2342 56.3371C46.4407 56.3002 46.6558 56.3598 46.8128 56.4989L42.9955 62.9513L41.7018 59.2382C41.5564 58.7471 41.0506 58.4491 40.5389 58.5484L36.5501 59.3177L40.3615 52.8795L40.3761 52.8795ZM52.1362 40.6503V40.6475C52.3194 40.4545 52.5723 40.3409 52.8427 40.3324C53.113 40.3239 53.3747 40.4176 53.5724 40.5964C53.9823 40.9711 54.0056 41.5985 53.6247 41.9987L50.1563 45.6323C49.9644 45.8367 49.6941 45.9531 49.4121 45.9531C49.13 45.9531 48.8597 45.8367 48.6678 45.6323L46.9322 43.824C46.5513 43.4238 46.5746 42.7936 46.9845 42.4217C47.3973 42.047 48.0399 42.0697 48.4207 42.4728L49.4179 43.5061L52.1362 40.6503Z" fill="#3742F3"/>
</svg>

<svg width="67" height="67" fill="none" xmlns="http://www.w3.org/2000/svg"><path fill-rule="evenodd" clip-rule="evenodd" d="M40.19 4.356v6.68-.003c0 .443.366.8.82.8h6.832L40.19 4.356Zm-9.557 19.17a17.104 17.104 0 0 1-4.465 3.4 1.022 1.022 0 0 1-.974 0c-3.41-1.805-6.132-4.635-7.757-8.072a13.607 13.607 0 0 1-1.064-4.934c-.096-1.692 0-3.452.044-5.087a1.01 1.01 0 0 1 .91-.99 30.088 30.088 0 0 0 7.977-1.903.993.993 0 0 1 .745 0 30.334 30.334 0 0 0 7.934 1.888c.5.054.883.454.907.945.067 1.664.142 3.438.043 5.144l.003.003a13.687 13.687 0 0 1-1.058 4.934 19.193 19.193 0 0 1-3.215 4.672h-.03Zm-4.986 1.402a15.853 15.853 0 0 0 6.356-6.932c1.035-2.18.945-5.814.849-8.292a37.225 37.225 0 0 1-3.53-.647 31.512 31.512 0 0 1-3.721-1.133 31.723 31.723 0 0 1-3.721 1.133 36.7 36.7 0 0 1-3.518.647c-.105 2.586-.2 6.004.84 8.3v-.002a15.839 15.839 0 0 0 6.445 6.926Zm1.89-12.2-2.733 2.841-.988-1.039a1.034 1.034 0 0 0-1.44-.048.976.976 0 0 0-.049 1.405l1.713 1.774c.192.205.462.318.744.318s.552-.113.744-.318l3.469-3.633a.976.976 0 0 0-.05-1.405 1.034 1.034 0 0 0-1.439.045l.03.06ZM10.105 28.655a1.041 1.041 0 0 1 1.44-.051.975.975 0 0 1 .049 1.402l-3.126 3.242a1.015 1.015 0 0 1-1.488 0l-1.564-1.621h.003a.973.973 0 0 1 .052-1.403 1.036 1.036 0 0 1 1.436.051l.82.858 2.39-2.478h-.012Zm5 3.293h.003a1.041 1.041 0 0 1-.776-.259.98.98 0 0 1 0-1.467c.21-.188.492-.281.776-.259h23.869c.526.046.933.474.933.994 0 .517-.407.945-.933.99H15.106Zm0 8.03h.003a1 1 0 0 1-1.011-.987A1 1 0 0 1 15.108 38h19.084c.558 0 1.012.443 1.012.99a1 1 0 0 1-1.012.989H15.106Zm0 8.037h.003a1 1 0 0 1-1.011-.988 1 1 0 0 1 1.011-.987h18.98a1 1 0 0 1 1.011.987 1 1 0 0 1-1.012.988H15.106Zm0 8.037h.003a1.019 1.019 0 0 1-.776-.258.976.976 0 0 1 0-1.465c.21-.19.492-.284.776-.258h18.898c.526.042.93.474.93.99 0 .517-.404.949-.93.991h-18.9Zm-5-19.357c.186-.194.44-.307.71-.319.267-.008.532.088.73.267.41.372.432 1 .049 1.403l-3.126 3.242a1.03 1.03 0 0 1-1.489 0l-1.563-1.621h.003a.973.973 0 0 1 .052-1.403 1.03 1.03 0 0 1 1.436.051l.82.858 2.39-2.479h-.012Zm0 8.036c.186-.193.44-.306.71-.315a1.03 1.03 0 0 1 .73.264.976.976 0 0 1 .049 1.403l-3.126 3.241a1.03 1.03 0 0 1-1.489 0l-1.563-1.62h.003a.973.973 0 0 1 .052-1.403 1.03 1.03 0 0 1 1.436.051l.82.852 2.39-2.47-.012-.003Zm0 8.037a1.041 1.041 0 0 1 1.44-.051.979.979 0 0 1 .049 1.405l-3.126 3.242v-.003c-.192.204-.46.318-.744.318a1.02 1.02 0 0 1-.744-.318l-1.564-1.62h.003a.973.973 0 0 1 .052-1.403 1.036 1.036 0 0 1 1.436.05l.82.852 2.39-2.47-.012-.002ZM52.48 31.325l-1.756-1.351h-.003a.751.751 0 0 0-.898 0l-1.76 1.351a2.79 2.79 0 0 1-2.113.545l-2.038-.306a.75.75 0 0 0-.796.45l-.692 1.84A2.64 2.64 0 0 1 40.8 35.43l-1.875.684a.724.724 0 0 0-.462.778l.314 2.012a2.594 2.594 0 0 1-.567 2.064l-1.378 1.715a.719.719 0 0 0 0 .886l1.349 1.708a2.61 2.61 0 0 1 .564 2.073l-.314 2.007.003-.003a.724.724 0 0 0 .462.778l1.875.69a2.634 2.634 0 0 1 1.652 1.578l.7 1.84v-.004a.743.743 0 0 0 .788.489l2.061-.307a2.768 2.768 0 0 1 2.114.545l1.756 1.351v.003a.765.765 0 0 0 .901 0l1.756-1.351v-.003a2.78 2.78 0 0 1 2.123-.545l2.055.307h-.003c.34.048.672-.14.797-.452l.744-1.84v.004a2.62 2.62 0 0 1 1.616-1.579l1.876-.69a.683.683 0 0 0 .462-.777l-.395-2.041a2.585 2.585 0 0 1 .587-2.073l1.384-1.709a.711.711 0 0 0 0-.885l-1.384-1.715a2.59 2.59 0 0 1-.587-2.064l.305-2.012a.724.724 0 0 0-.462-.778l-1.876-.684a2.619 2.619 0 0 1-1.613-1.576l-.745-1.84a.75.75 0 0 0-.796-.45l-2.056.306a2.797 2.797 0 0 1-2.119-.545h.067Zm2.79 6.924c2.019 1.973 2.623 4.94 1.53 7.517-1.093 2.578-3.669 4.258-6.524 4.258-2.858 0-5.433-1.68-6.527-4.258-1.093-2.578-.488-5.544 1.533-7.517 2.759-2.689 7.227-2.689 9.989 0Zm-4.994-4.003c3.68 0 6.998 2.166 8.405 5.487 1.407 3.325.622 7.145-1.986 9.683-2.607 2.538-6.523 3.29-9.919 1.905-3.399-1.383-5.608-4.63-5.596-8.224.017-4.894 4.084-8.85 9.096-8.85ZM53.72 56.5a.678.678 0 0 1 .573-.162l2.061.307c1.285.184 2.527-.534 2.977-1.724l.701-1.83a1.01 1.01 0 0 1 .12-.21l3.854 6.438-3.983-.77a1.004 1.004 0 0 0-1.168.69l-1.323 3.713L53.72 56.5Zm-13.143 5.61H3.445c-.777 0-1.41-.614-1.413-1.375v-56.4c.003-.76.634-1.376 1.413-1.379h34.689v8.079c.006 1.536 1.28 2.779 2.852 2.785h8.268v14.208c-.247.096-.483.23-.692.391l-1.75 1.343a.666.666 0 0 1-.564.148l-2.061-.298c-1.282-.188-2.524.528-2.977 1.714l-.701 1.84v-.003a.735.735 0 0 1-.425.414l-1.883.727c-1.216.44-1.954 1.655-1.762 2.907l.314 2.007h-.003a.626.626 0 0 1-.148.553l-1.399 1.692a2.615 2.615 0 0 0 0 3.327l1.384 1.715v.003a.62.62 0 0 1 .148.545l-.314 2.013h.003c-.192 1.254.544 2.466 1.762 2.906l.314.117-4.8 8.138a.967.967 0 0 0 .061 1.06c.23.311.622.465 1.01.394l5.299-1.025.507 1.453Zm4.079 1.983-.974 1.678a1.017 1.017 0 0 1-.986.54 1.006 1.006 0 0 1-.884-.684l-.543-1.562H3.445C1.558 64.06.023 62.577 0 60.734v-56.4a3.328 3.328 0 0 1 1-2.392A3.495 3.495 0 0 1 3.445.948H39.17c.279-.009.55.097.744.29l11.12 10.857c.198.19.306.455.297.727v15.204c.25.097.482.228.692.392l1.75 1.346v-.003a.67.67 0 0 0 .567.148l2.061-.299c1.282-.187 2.523.529 2.977 1.715l.7 1.84-.002-.003a.69.69 0 0 0 .433.414l1.875.727c1.218.44 1.954 1.655 1.765 2.907l-.314 2.007a.66.66 0 0 0 .148.553l1.384 1.715a2.615 2.615 0 0 1 0 3.327l-1.384 1.715a.644.644 0 0 0-.148.545l.314 2.012c.189 1.255-.547 2.467-1.765 2.907l-.314.117 4.8 8.124h.003a.973.973 0 0 1-.061 1.056c-.23.312-.62.466-1.003.398l-5.3-1.025-1.77 4.965a1.02 1.02 0 0 1-.879.661 1.028 1.028 0 0 1-.976-.508l-4.786-8.045c-.247.205-.526.37-.825.494v2.507c-.006 1.854-1.541 3.352-3.44 3.358h-3.177Zm3.72-6.358-2.58 4.36h2.002-.003c.78 0 1.407-.616 1.407-1.374v-2.492a3.28 3.28 0 0 1-.825-.494Zm-8-4.855a.66.66 0 0 1 .12.21l.7 1.831c.45 1.19 1.692 1.908 2.977 1.724l2.061-.307a.692.692 0 0 1 .579.162l-3.818 6.452-1.293-3.713a1.007 1.007 0 0 0-1.163-.69l-3.989.77 3.812-6.438h.014Zm11.76-12.229v-.002a1.037 1.037 0 0 1 1.436-.051.978.978 0 0 1 .053 1.402l-3.469 3.633a1.022 1.022 0 0 1-1.488 0l-1.736-1.808a.978.978 0 0 1 .052-1.402 1.03 1.03 0 0 1 1.437.05l.997 1.034 2.718-2.856Z" fill="#3742F3"/></svg>
